src/assets/img/angular.svg

<svg width="70" height="75" viewBox="0 0 70 75" fill="none" xmlns="http://www.w3.org/2000/svg">
<path d="M35 0L70 12.45L64.6634 58.6125L35 75L5.33656 58.6125L0 12.45L35 0ZM35 8.2875L13.1194 57.225H21.2785L25.678 46.275H44.2468L48.65 57.225H56.8054L35 8.2875ZM41.3903 39.525H28.6097L35 24.1875L41.3903 39.525Z" fill="#c3002f"/>
</svg>

<svg width="70" height="75" fill="none" xmlns="http://www.w3.org/2000/svg"><path d="m35 0 35 12.45-5.337 46.162L35 75 5.337 58.612 0 12.45 35 0Zm0 8.287L13.12 57.226h8.159l4.399-10.95h18.569l4.403 10.95h8.155L35 8.287Zm6.39 31.238H28.61L35 24.188l6.39 15.337Z" fill="#c3002f"/></svg>
